icons/svg/poi_colored/wikipedia2.svg

<?xml version="1.0" encoding="UTF-8" standalone="no"?>
<!-- Created with Inkscape (http://www.inkscape.org/) -->

<svg
   xmlns:dc="http://purl.org/dc/elements/1.1/"
   xmlns:cc="http://creativecommons.org/ns#"
   xmlns:rdf="http://www.w3.org/1999/02/22-rdf-syntax-ns#"
   xmlns:svg="http://www.w3.org/2000/svg"
   xmlns="http://www.w3.org/2000/svg"
   xmlns:sodipodi="http://sodipodi.sourceforge.net/DTD/sodipodi-0.dtd"
   xmlns:inkscape="http://www.inkscape.org/namespaces/inkscape"
   version="1.0"
   width="580"
   height="580"
   id="svg2"
   sodipodi:version="0.32"
   inkscape:version="0.48.4 r9939"
   sodipodi:docname="wikipedia2.svg"
   inkscape:output_extension="org.inkscape.output.svg.inkscape">
  <metadata
     id="metadata10">
    <rdf:RDF>
      <cc:Work
         rdf:about="">
        <dc:format>image/svg+xml</dc:format>
        <dc:type
           rdf:resource="http://purl.org/dc/dcmitype/StillImage" />
        <cc:license
           rdf:resource="http://web.resource.org/cc/PublicDomain" />
        <dc:language>en</dc:language>
        <dc:title />
      </cc:Work>
    </rdf:RDF>
  </metadata>
  <sodipodi:namedview
     inkscape:window-height="889"
     inkscape:window-width="1439"
     inkscape:pageshadow="2"
     inkscape:pageopacity="0.0"
     guidetolerance="10.0"
     gridtolerance="10.0"
     objecttolerance="10.0"
     borderopacity="1.0"
     bordercolor="#666666"
     pagecolor="#ffffff"
     id="base"
     showgrid="false"
     inkscape:zoom="0.22627417"
     inkscape:cx="-935.25656"
     inkscape:cy="73.358828"
     inkscape:window-x="139"
     inkscape:window-y="32"
     inkscape:current-layer="svg2"
     inkscape:window-maximized="0" />
  <defs
     id="defs4">
    <inkscape:perspective
       sodipodi:type="inkscape:persp3d"
       inkscape:vp_x="0 : 290 : 1"
       inkscape:vp_y="0 : 1000 : 0"
       inkscape:vp_z="580 : 290 : 1"
       inkscape:persp3d-origin="290 : 193.33333 : 1"
       id="perspective12" />
    <style
       type="text/css"
       id="style6">
   
    .fil0 {fill:#EF7900}
   
  </style>
    <inkscape:perspective
       id="perspective6807"
       inkscape:persp3d-origin="29.116032 : 19.410688 : 1"
       inkscape:vp_z="58.232063 : 29.116032 : 1"
       inkscape:vp_y="0 : 1000 : 0"
       inkscape:vp_x="0 : 29.116032 : 1"
       sodipodi:type="inkscape:persp3d" />
    <inkscape:perspective
       id="perspective6954"
       inkscape:persp3d-origin="290 : 193.33333 : 1"
       inkscape:vp_z="580 : 290 : 1"
       inkscape:vp_y="0 : 1000 : 0"
       inkscape:vp_x="0 : 290 : 1"
       sodipodi:type="inkscape:persp3d" />
    <inkscape:perspective
       id="perspective2541"
       inkscape:persp3d-origin="240 : 160 : 1"
       inkscape:vp_z="480 : 240 : 1"
       inkscape:vp_y="0 : 1000 : 0"
       inkscape:vp_x="0 : 240 : 1"
       sodipodi:type="inkscape:persp3d" />
    <inkscape:perspective
       id="perspective2750"
       inkscape:persp3d-origin="215 : 143.33333 : 1"
       inkscape:vp_z="430 : 215 : 1"
       inkscape:vp_y="0 : 1000 : 0"
       inkscape:vp_x="0 : 215 : 1"
       sodipodi:type="inkscape:persp3d" />
    <inkscape:perspective
       id="perspective3730"
       inkscape:persp3d-origin="88.929146 : 101.19778 : 1"
       inkscape:vp_z="177.85829 : 151.79668 : 1"
       inkscape:vp_y="0 : 1000 : 0"
       inkscape:vp_x="0 : 151.79668 : 1"
       sodipodi:type="inkscape:persp3d" />
  </defs>
  <g
     id="g1327">
    <path
       d="M 66.275,1.768 C 24.94,1.768 1.704,23.139 1.704,66.804 L 1.704,516.927 C 1.704,557.771 22.598,579.156 63.896,579.156 L 515.92,579.156 C 557.227,579.156 578.149,558.84 578.149,516.927 L 578.149,66.804 C 578.149,24.203 557.227,1.768 514.627,1.768 C 514.624,1.768 66.133,1.625 66.275,1.768 z"
       style="fill:#111111;stroke:#eeeeee;stroke-width:3.40799999"
       id="path1329" />
  </g>
  <path
     style="color:#000000;fill:#ffffff;fill-opacity:1;fill-rule:nonzero;stroke:none;stroke-width:1;marker:none;visibility:visible;display:inline;overflow:visible;enable-background:accumulate"
     d="m 42.571436,128.67938 c -3.104103,0 -5.623375,2.51928 -5.623375,5.62338 l 0,14.76137 c 0,3.1041 2.519272,5.62337 5.623375,5.62337 l 31.631497,0 139.178557,293.11851 c 0.89974,1.91195 2.80606,3.44713 4.92048,3.51461 2.29433,-0.045 3.90823,-0.94473 4.92044,-2.81168 l 70.99515,-130.04059 64.66882,130.04059 c 0.9447,1.91194 3.48652,2.81168 5.6234,2.81168 2.15935,-0.0225 4.02066,-1.57904 4.92044,-3.51461 l 137.77273,-293.11851 30.22563,0 c 3.12664,0 5.62336,-2.51927 5.62336,-5.62337 l 0,-14.76137 c 0,-3.1041 -2.49672,-5.62338 -5.62336,-5.62338 l -98.4091,0 c -3.10409,0 -5.62335,2.51928 -5.62335,5.62338 l 0,15.46429 c 0,3.1041 2.51926,5.62337 5.62335,5.62337 l 31.63152,0 -99.81494,220.71754 -51.31331,-106.14123 63.26299,-114.57631 17.57303,0 c 3.12659,0 5.6234,-2.51927 5.6234,-5.62337 l 0,-15.46429 c 0,-3.1041 -2.49681,-5.62338 -5.6234,-5.62338 l -80.83602,0 c -3.12659,0 -5.6234,2.51928 -5.6234,5.62338 l 0,15.46429 c 0,3.1041 2.49681,5.62337 5.6234,5.62337 l 26.71104,0 -42.87828,79.4302 -36.55191,-79.4302 14.76136,0 c 3.10409,0 5.62336,-2.51927 5.62336,-5.62337 l 0,-15.46429 c 0,-3.1041 -2.51927,-5.62338 -5.62336,-5.62338 l -83.64774,0 c -3.10409,0 -5.62338,2.51928 -5.62338,5.62338 l 0,15.46429 c 0,3.1041 2.51929,5.62337 5.62338,5.62337 l 15.46427,0 63.26299,127.93182 -49.90747,93.48864 -96.30031,-222.12338 24.60227,0 c 3.10411,0 5.62338,-2.51927 5.62338,-5.62337 l 0,-14.76137 c 0,-3.1041 -2.51927,-5.62338 -5.62338,-5.62338 z"
     id="rect3007"
     inkscape:connector-curvature="0"
     sodipodi:nodetypes="sssscccccccccssssssssccccsssssssscccssssssssccccsssss" />
</svg>

<svg width="580" height="580" viewBox="0 0 580 580" fill="none" xmlns="http://www.w3.org/2000/svg">
<g clip-path="url(#clip0)">
<path d="M66.2751 1.76815C24.9401 1.76815 1.7041 23.1391 1.7041 66.8041V516.927C1.7041 557.771 22.5981 579.156 63.8961 579.156H515.92C557.227 579.156 578.149 558.84 578.149 516.927V66.8041C578.149 24.2031 557.227 1.76815 514.627 1.76815C514.624 1.76815 66.1331 1.62515 66.2751 1.76815Z" fill="#111111" stroke="#EEEEEE" stroke-width="3.408"/>
<path d="M42.5714 128.679C39.4673 128.679 36.948 131.198 36.948 134.303V149.064C36.948 152.168 39.4673 154.687 42.5714 154.687H74.2029L213.381 447.806C214.281 449.718 216.187 451.253 218.302 451.32C220.596 451.275 222.21 450.376 223.222 448.509L294.217 318.468L358.886 448.509C359.831 450.421 362.373 451.32 364.51 451.32C366.669 451.298 368.53 449.741 369.43 447.806L507.203 154.687H537.429C540.555 154.687 543.052 152.168 543.052 149.064V134.303C543.052 131.198 540.555 128.679 537.429 128.679H439.019C435.915 128.679 433.396 131.198 433.396 134.303V149.767C433.396 152.871 435.915 155.39 439.019 155.39H470.651L370.836 376.108L319.523 269.967L382.786 155.39H400.359C403.485 155.39 405.982 152.871 405.982 149.767V134.303C405.982 131.198 403.485 128.679 400.359 128.679H319.523C316.396 128.679 313.899 131.198 313.899 134.303V149.767C313.899 152.871 316.396 155.39 319.523 155.39H346.234L303.355 234.82L266.804 155.39H281.565C284.669 155.39 287.188 152.871 287.188 149.767V134.303C287.188 131.198 284.669 128.679 281.565 128.679H197.917C194.813 128.679 192.294 131.198 192.294 134.303V149.767C192.294 152.871 194.813 155.39 197.917 155.39H213.381L276.644 283.322L226.737 376.811L130.437 154.687H155.039C158.143 154.687 160.662 152.168 160.662 149.064V134.303C160.662 131.198 158.143 128.679 155.039 128.679H42.5714Z" fill="white"/>
</g>
<defs>
<clipPath id="clip0">
<path d="M0 0H580V580H0V0Z" fill="white"/>
</clipPath>
</defs>
</svg>
